X: 274
M:3/2
L:1/8
K:D
d3B ABAG F2A2 | G2B2=cBAGF2A2 | d3B ABAG ^cBcA | d3B ABAGF2D2 ||
f3g fgafb2B2 | g3f gfedc2A2 | d3f gfed cdec | A2d2 cdecd2D2 ||

